X: 33930
T: Red-Haired Girl, The
R: slip jig
M: 9/8
K: Adorian
B|:c2A AEA cBA|BAG Gge dBG|c2A AEA cBA|1 Bge dBG A2B:|2 Bge dBG AB/c/d||
e2a age aba|g2e dBd ged|~e2a age aba|gfe dBG AB/c/d|
e2a age aba|g2e dBG GAB|cec B/c/dB AGE|Gge dBG A2B||

